X: 1
T: String Quartet in E\b Major opus 64 no 6 mvt 3
C: Franz Joseph Haydn
%%abc-version 2.0
%%abcx-abcm2ps-target-version 5.9.1 (29 Sep 2008)
%%abc-creator hum2abc beta
%%abcx-conversion-date 2021/02/14 14:38:13
%%abc-copyright Copyright (c) 1994, 2000 Center for Computer Assisted Research in the Humanities
%%abc-edited-by Frances Bennion
%%abcx-initial-encoding-date 1997/04/15
%%gracespace 0 6 6
%%humdrum-veritas 412443017
%%humdrum-veritas-data 828763411
%%linebreak <none>
%%barnumbers 0
L: 1/8
M: 3/4
N: Derived from op64n6-03.krn
Q: "Menuetto: Allegretto"
%%staves [1 2 3 4]
V: 1
V: 2
V: 3 clef=alto
V: 4 clef=bass
K: Eb
[V:1]z4 B2 [I:setbarnb1]|
[V:2]z4 z2 |
[V:3]z4 z2 |
[V:4]z4 z2 |
[V:1]e2 e2 e2 |
[V:2]Bc BA Gz |
[V:3]GA GF Ez |
[V:4]E,2 z4 |
[V:1]e2 e2 e2 |
[V:2]Bc BA Gz |
[V:3]GA GF E2 |
[V:4]E,2 z4 |
[V:1]=B6 |
[V:2]EF ED E2 |
[V:3]E,F, E,D, E,2 |
[V:4]G,,6 |
[V:1]c4 c2 |
[V:2]E6 |
[V:3]E,4 A,2 |
[V:4]A,,B,, A,,G,, A,,2 |
[V:1]ED ED cB |
[V:2]A,2 A,2 D2 |
[V:3]F,2 F,2 F,2 |
[V:4]B,,2 B,,2 B,,2 |
[V:1]AG FE B2 |
[V:2]E2 z4 |
[V:3]G,2 z4 |
[V:4]E,2 z4 |
[V:1]g2 g2 g2 |
[V:2]Bc BA Gz |
[V:3]GA GF Ez |
[V:4]E,2 z4 |
[V:1]g2 g2 g2 |
[V:2]Bc BA Gz |
[V:3]GA GF Ez |
[V:4]E,2 z4 |
[V:1]=e6 |
[V:2]B6 |
[V:3]_D6 |
[V:4]G,6 |
[V:1]f4 e2 |
[V:2]F6- |
[V:3]C6 |
[V:4]=A,6 |
[V:1]df dB c=A |
[V:2]F2 FD EC |
[V:3]D2 B,2 F,E, |
[V:4]B,2 z2 F,2 |
[V:1]B2 z4 |
[V:2]B,2 z4 |
[V:3]D,2 z2 EC |
[V:4]B,,2 B,2 z2 |
[V:1]z6 |
[V:2]z6 |
[V:3]DF DB, C=A, |
[V:4]z4 E,C, |
[V:1]z4 ec |
[V:2]z6 |
[V:3]B,2 z4 |
[V:4]D,F, D,B,, C,=A,, |
[V:1]df dB D2 |
[V:2]z4 af |
[V:3]z6 |
[V:4]B,,2 z4 |
[V:1]E2 z2 _d'b |
[V:2]gb ge Be |
[V:3]z4 G2 |
[V:4]z6 |
[V:1]c'e' c'a bg |
[V:2]c2 z2 Gc |
[V:3]A2 z2 =E2 |
[V:4]z6 |
[V:1]ac' af ge |
[V:2]c2 d2 e2 |
[V:3]F2 B2 E2 |
[V:4]z6 |
[V:1]fg ag fe |
[V:2]c6 |
[V:3]A4 =A2 |
[V:4]z6 |
[V:1]B2 z2 B2 |
[V:2]B2 z4 |
[V:3]B=A Bc _AF |
[V:4]z6 |
[V:1]e2 e2 e2 |
[V:2]Bc BA Gz |
[V:3]GA GF Ez |
[V:4]E,2 z4 |
[V:1]e2 e2 e2 |
[V:2]Bc BA Gz |
[V:3]GA GF Ez |
[V:4]E,2 z4 |
[V:1]=B6 |
[V:2]EF ED E2 |
[V:3]E,F, E,D, E,2 |
[V:4]G,,6 |
[V:1]c2 z4 |
[V:2]E2 z4 |
[V:3]E,2 z4 |
[V:4]A,,2 z4 |
[V:1]_de dc d2 |
[V:2]Bc B=A B2 |
[V:3]E6- |
[V:4]G,6 |
[V:1]c2 z4 |
[V:2]A2 z4 |
[V:3]E2 z4 |
[V:4]A,2 z4 |
[V:1]d6 |
[V:2]AB AG A2 |
[V:3]FG FE F2 |
[V:4]B,6 |
[V:1]e2 z4 |
[V:2]G2 z4 |
[V:3]E2 z4 |
[V:4]C2 z4 |
[V:1]=e6 |
[V:2]Bc B=A B2 |
[V:3]_d6 |
[V:4]G,A, G,F, G,2 |
[V:1]f2 a2 g2 |
[V:2]c2 B2 B2 |
[V:3]c2 F2 GE |
[V:4]A,2 D,2 E,2 |
[V:1]f2 e2 d2 |
[V:2]A2 G2 F2 |
[V:3]C2 B,2 A,2 |
[V:4]A,2 B,2 B,,2 |
[V:1]e2 z2 c2 |
[V:2]G2 z4 |
[V:3]G,2 z4 |
[V:4]E,2 z4 |
[V:1]E2 D2 cB |
[V:2]A,2 z2 A,2 |
[V:3]F,2 z2 F,2 |
[V:4]B,,2 z2 B,,2 |
[V:1]ED cB ED |
[V:2]A,2 A,2 A,2 |
[V:3]F,2 F,2 F,2 |
[V:4]B,,2 B,,2 B,,2 |
[V:1]cB ED AD |
[V:2]A,2 A,2 A,2 |
[V:3]F,2 F,2 F,2 |
[V:4]B,,2 B,,2 B,,2 |
[V:1]E2 z2 B2 |
[V:2]G,2 z4 |
[V:3]G,2 z4 |
[V:4]E,,2 z4 |
[V:1]g2 e2 e2 |
[V:2]EG BG BG |
[V:3]z4 E2 |
[V:4]E,2 z4 |
[V:1]b2 g2 gb |
[V:2]EG BG EG |
[V:3]G2 E2 E2 |
[V:4]E,2 z4 |
[V:1]ba ag gf |
[V:2]DB FB GB |
[V:3]B,2 D2 E2 |
[V:4]B,,2 z4 |
[V:1]f2 z2 B2 |
[V:2]DB FB DB |
[V:3]B,2 z4 |
[V:4]B,,2 z4 |
[V:1]f2 d2 d2 |
[V:2]DA FA FA |
[V:3]z4 B,2 |
[V:4]B,,2 z4 |
[V:1]a2 f2 fa |
[V:2]DF AF DF |
[V:3]F2 D2 B2 |
[V:4]B,,2 z4 |
[V:1]ag gf fe |
[V:2]EG BA AG |
[V:3]E2 z2 DE |
[V:4]E,2 z2 B,,2 |
[V:1]e2 z2 B,E |
[V:2]G2 z4 |
[V:3]E2 z2 B,2 |
[V:4]E,2 E,,2 G,2 |
[V:1]ED ED FE |
[V:2]z6 |
[V:3]A,4 B,2 |
[V:4]F,4 G,2 |
[V:1]GF GF AG |
[V:2]z6 |
[V:3]F,4 G,2 |
[V:4]D,4 E,2 |
[V:1]B=A BA eA |
[V:2]z4 =A,E |
[V:3]E,4 F,2 |
[V:4]C,6 |
[V:1]cB dc ed |
[V:2]D2 E2 F2 |
[V:3]B,2 B,2 B,2 |
[V:4]B,,2 z4 |
[V:1]fe ge c=A |
[V:2]G4 E2 |
[V:3]B,6 |
[V:4]z6 |
[V:1]Bd fb d'b |
[V:2]D2 d2 B2 |
[V:3]B,2 B,2 B,2 |
[V:4]B,,2 z4 |
[V:1]b=a e'c' ac' |
[V:2][c6E6] |
[V:3]B,6 |
[V:4]z6 |
[V:1]b2 z4 |
[V:2][B2D2] z2 B2 |
[V:3]B,2 z4 |
[V:4]B,,2 z4 |
[V:1]z2 g'g' g'2 |
[V:2]g2 e2 e2 |
[V:3]EG BG BG |
[V:4]E,2 z2 E,2 |
[V:1]z2 b'b' b'2 |
[V:2]b2 g2 gb |
[V:3]EG BG EG |
[V:4]G,2 E,2 E,2 |
[V:1]b'2 b'b' b'b' |
[V:2]ba ag gf |
[V:3]DB FB GB |
[V:4]B,2 D2 E2 |
[V:1]b'2 z4 |
[V:2]f2 z2 B2 |
[V:3]DB FB DB |
[V:4]B,2 z4 |
[V:1]b'2 b'b' b'2 |
[V:2]f2 d2 d2 |
[V:3]DA FA FA |
[V:4]z4 B,,2 |
[V:1]d''2 d''d'' d''2 |
[V:2]a2 f2 fa |
[V:3]DF AF AF |
[V:4]F,2 D,2 B,,2 |
[V:1]e''2 e''e'' e''e'' |
[V:2]ag gf fe |
[V:3]E2 z2 DE |
[V:4]E,2 z2 B,,2 |
[V:1]e''2 z4 |]
[V:2]e2 z4 |]
[V:3]E2 z4 |]
[V:4]E,2 z4 |]

